!!!!SEGMENT: pl-wtm--r-2040--001_smietanski-emil-wladyslaw--graziella.krn
!!!id: 18xx:1982
!!!COM: Śmietański, Emil Władysław
!!!COM-rism: pe50041781
!!!CDT: 1845-1886
!!!CNT: Polish
!!!OTL: Graziella
!!!PDT: 1872
!!!SMS-siglum: PL-Wtm
!!!SMS-shelfmark: R 2040
!!!NIFC-rismID: 1001112994
!!!URL-scan: http://repozytorium.nifc.pl/skany/pl-wtm-nut--r2040
!!!ONB-nifc: UWAGA: utwory w zbiorze: 1. Graziella, 2. Szum Wisły, 3. Polonaise-Caprise
!!!OMD: Andantino quasi Alegretto.
!!!SMS-variant:
!!!SMS-altvar:
**kern	**kern	**dynam
*part2	*part1	*part1
*staff2	*staff1	*
*I"Piano	*I"Piano	*
*clefF4	*clefG2	*
*k[f#c#g#]	*k[f#c#g#]	*
*M3/4	*M3/4	*
=1	=1	=1
*ped	*	*
!	!LO:SIC:o:v:t=palcowanie ołówkiem	!
4AA\	16cc#\LL	p
.	16aa\	.
.	16ee\	.
!	!LO:TX:b:t=con grazia	!
.	16eee\JJ	.
4a\ 4c#\	16ccc#\LL	.
.	16aa\	.
.	16ff#\	.
.	16ee\JJ	.
*Xped	*	*
4c#\ 4E\	16ff#M\LL	.
.	16ee\	.
.	16cc#\	.
.	16a\JJ	.
=2	=2	=2
4EE/	16dd\LL	.
*ped	*	*
.	16gg#\	.
.	16ee\	.
.	16eee\JJ	.
4g#/ 4d/	16ddd\LL	.
.	16gg#\	.
.	16ff#\	.
.	16ee\JJ	.
4d/ 4E/	16ff#M\LL	.
.	16ee\	.
.	16dd\	.
.	16g#\JJ	.
=3	=3	=3
4EE/	16dd\LL	.
.	16gg#\	.
.	16ee\	.
.	16eee\JJ	.
*clefG2	*	*
4b/ 4d/	16aaa\LL	.
.	16ddd\	.
.	16ggg#\	.
.	16gg#\JJ	.
*clefF4	*	*
4g#\ 4d\ 4E\	16ggg#\LL	.
.	16eee\	.
.	16gggn\	.
.	16ggn\JJ	.
=4	=4	=4
4AA\	16gggn\LL	.
.	16ccc#\	.
.	16aaa\	.
.	16aa\JJ	.
4a\ 4c#\	16fff#\LL	.
.	16ccc#\	.
.	16fffn\	.
.	16aa\JJ	.
4c#\ 4E\	16fff\LL	.
.	16ccc#\	.
.	16eee\	.
.	16ee\JJ	.
=5	=5	=5
4AAA/	16cc#\LL	.
.	16aa\	.
.	16ee\	.
.	16eee\JJ	.
4a\ 4c#\	16ccc#\LL	.
.	16aa\	.
.	16ff#\	.
.	16ee\JJ	.
4c#\ 4E\	16ff#M\LL	.
.	16ee\	.
.	16cc#\	.
.	16a\JJ	.
!!LO:LB:g=original
=6	=6	=6
4CCn/	16a#X\LL	.
.	16ggn\	.
.	16ee\	.
.	16eee\JJ	.
*clefG2	*	*
4a#X/ 4e/	16cccn\LL	.
.	16gg\	.
.	16ff#\	.
.	16ee\JJ	.
4e/ 4Gn/	16ff#m\LL	.
.	16ee\	.
.	16ccn\	.
.	16a#\JJ	.
*clefF4	*	*
=7	=7	=7
4BB/	16b\LL	.
.	16gg#\	.
.	16ee\	.
.	16bb\JJ	.
*clefG2	*	*
4b/: 4e/: 4G#:/	16gg#\LL	.
.	16bb\	.
.	16bbb\	.
.	16bb\JJ	.
4dd#X/: 4a/: 4B:/	16aaa#X\LL 16ccc#\	.
.	16bb\	.
.	16cccc#\ 16ddd#X\	.
.	16bb\JJ	.
*clefF4	*	*
=8	=8	=8
*	*8va	*
4E\	16ggg#\LL 16eee\	.
.	16fff##X\ 16ddd#X\	.
.	16ggg#\ 16eee\	.
.	16eeee\JJ	.
*clefG2	*	*
4ff#/: 4dd/: [4e:/	16fff#X\LL 16dddn\	.
.	16eee#X\ 16ccc#\	.
.	16fff#\ 16ddd\	.
.	16eeee\JJ	.
4ffn/ 4dd/ 4e/]	16fffn\LL 16ddd\	.
.	16eeen\ 16ccc#\	.
.	16fff\ 16ddd\	.
.	16eeee\JJ	.
*clefF4	*X8va	*
=9	=9	=9
4EE/	16eee\LL 16gg#\	.
.	16fffn\ 16ddd\	.
.	16eee\ 16gg#\	.
.	16bbb\JJ 16ddd\	.
*clefG2	*	*
4b/ 4d/	16eee\LL 16gg#\	.
.	16fff\ 16ddd\	.
.	16eee\ 16gg#\	.
.	16ddd\JJ 16ffn\	.
*clefF4	*	*
4g#\ 4d\ 4E\	16gg#\LL 16ee\	.
.	16ddd\ 16ff\	.
.	16gg#\ 16ee\	.
.	16eee\JJ	.
=10	=10	=10
4AA/	16eee\LL 16aa\	.
.	16fff#X\ 16ccc#\	.
.	16eee\ 16aa\	.
.	16aaa\JJ 16ccc#\	.
4a\ 4c#\	16eee\LL 16aa\	.
.	16fff#\ 16ccc#\	.
.	16eee\ 16aa\	.
.	16ccc#\JJ 16ff#\	.
4c#\ 4E\	16aa\LL 16ee\	.
.	16ccc#\ 16ff#\	.
.	16aa\ 16ee\	.
.	16eee\JJ	.
!!LO:LB:g=original
=11	=11	=11
4DD/	16fff#\LL 16ddd\ 16aa\	.
.	16dd\	.
.	16fffn\ 16ddd\ 16gg#\	.
.	16dd\JJ	.
*clefG2	*	*
!	!LO:SIC:v:s=fff#	!
4a/ 4d/	16fff\LL 16ddd\ 16aa\	.
.	16dd\	.
!	!LO:SIC:v:s=fff#	!
.	16aaa\ 16fff\ 16ddd\	.
.	16ff#\JJ	.
*clefF4	*	*
!	!LO:SIC:v:s=fff#	!
4d\ 4A\ 4D\	16aaa\LL 16fff\ 16ddd\	.
.	16dd\	.
.	16fffn\ 16ddd\ 16aa\	.
.	16dd\JJ	.
=12	=12	=12
4AAA/	16eee\LL 16ccc#\ 16aa\	.
.	16cc#\	.
.	16ddd#X\ 16cccn\ 16aa\	.
.	16ccn\JJ	.
4a\ 4c#\	16eee\LL 16ccc#X\ 16aa\	.
.	16cc#X\	.
!	!LO:SIC:v:s=ddd#	!
.	16fffn\ 16ddd#\ 16aa\	.
.	16dd\JJ	.
!	!LO:SIC:v:s=ddd#	!
4c#\ 4E\	16fff\LL 16ddd#\ 16aa\	.
.	16dd\	.
.	16eee\ 16ccc#\ 16aa\	.
.	16cc#\JJ	.
=13	=13	=13
4EE/	16eee\LL 16gg#\	.
.	16fffn\ 16ddd\	.
.	16eee\ 16gg#\	.
.	16bbb\JJ 16ddd\	.
*clefG2	*	*
4b/ 4d/	16eee\LL 16gg#\	.
.	16fffn\ 16ddd\	.
.	16eee\ 16gg#\	.
.	16ddd\JJ 16ffn\	.
*clefF4	*	*
4g#\ 4d\ 4E\	16gg#\LL 16ee\	.
.	16ddd\ 16ff\	.
.	16gg#\ 16ee\	.
.	16eee\JJ	.
=14	=14	=14
4AA\	16eee\LL 16aa\	.
.	16fff#\ 16ccc#\	.
.	16eee\ 16aa\	.
.	16aaa\JJ 16ccc#\	.
4a\ 4c#\	16eee\LL 16aa\	.
.	16fff#\ 16ccc#\	.
.	16eee\ 16aa\	.
.	16ccc#\JJ 16ee\	.
4a\ 4d#X\ 4cn\ 4Fn\	16aa\LL 16dd#X\	.
.	16ccc#\ 16ffn\	.
.	16aa\ 16dd#\	.
.	16ddd#X\JJ 16ff\	.
=15	=15	=15
4EE\	16ee\LL	.
.	16ccc#\ 16aa\	.
.	16ddd#X\	.
.	16eee\JJ	.
*	*8va	*
4a\ 4c#\	16fff#M\LL	.
.	16eee\ 16ccc#\	.
.	16aaa\	.
.	16eeee\JJ	.
!!LO:LB:g=original
4g#\ 4d\ 4E\	16fffn\LL	.
.	16eee\ 16ddd\	.
.	16ggg#\	.
.	16eeee\JJ	.
=16	=16	=16
4AA\	16aaa\LL	.
.	16ccc#\ 16aa\	.
.	16eee\	.
.	16aaa\JJ	.
*clefG2	*	*
4ee/ 4a/ 4c#/	8aaaa\ 8eeee\	.
*	*X8va	*
.	8r	.
4r	8.aa\L 8.cc#\	.
.	16gg#\Jk 16b\	.
*clefF4	*	*
=17||	=17||	=17||
!	!LO:SIC:o:v:t=nieczytelna dynamika	!
16BB\LL	4.gg#\ 4.b\	???
16B\	.	.
16cn\	.	.
16c#X\JJ	.	.
*clefG2	*	*
16d/LL	.	.
16d#X/	.	.
16B/	8ff#\L 8a\	.
16b/JJ	.	.
16d#/LL	8cc#\ 8a#X\	.
16b/	.	.
16B/	8dd#X\J 8an\	.
16b/JJ	.	.
=18	=18	=18
16E/LL	4.ff#\ 4.a\	.
16B/	.	.
16cn/	.	.
16c#X/JJ	.	.
16d/LL	.	.
16d#X/	.	.
16e/	8ee\L 8g#\	.
16cn/JJ	.	.
16B/LL	8a#X\ 8f##X\	.
16e/	.	.
16G#/	8b\J 8g#\	.
16B/JJ	.	.
*clefF4	*	*
=19	=19	=19
16AA\LL	8ccn\L 8a\	.
16E\	.	.
16A\	8ee\J 8cc\	.
16cn\JJ	.	.
*clefG2	*	*
16e/LL	8aa\L 8ee\	.
16a/	.	.
16ccn/	8cccn\J 8aa\	.
16a/JJ	.	.
16f#/LL	8.eee\L 8.ccc\	.
16e/	.	.
16c/	.	.
16A/JJ	16ccc\Jk 16aa\	.
*clefF4	*	*
=20	=20	=20
*	*2\right	*
16EE\LL	[>2bb\ [>2gg#\	.
16BB\	.	.
16E\	.	.
16G#\JJ	.	.
16c#Xm\LL	.	.
16B\	.	.
16b\	.	.
16B\JJ	.	.
16A\LL	8.bb\]L 8.gg#\]	.
16G#\	.	.
16e\	.	.
16G#\JJ	16gg#\Jk 16b\	.
=21	=21	=21
16BB\LL	4.gg#\ 4.b\	.
16B\	.	.
16cn\	.	.
16c#X\JJ	.	.
*clefG2	*	*
16d/LL	.	.
16d#X/	.	.
16B/	8ff#\L 8a\	.
16b/JJ	.	.
16d#/LL	8cc#\ 8a#X\	.
16b/	.	.
16B/	8dd#X\J 8an\	.
16b/JJ	.	.
!!LO:LB:g=original
=22	=22	=22
*clefF4	*	*
16C#\LL	4.ff#\ 4.a\	.
16G#\	.	.
16c#\	.	.
16d\JJ	.	.
16d#X\LL	.	.
16e\JJ	.	.
*clefG2	*	*
16c#/LL	8ee\L 8g#\	.
16cc#/JJ	.	.
16e/LL	8b#X\ 8gn\	.
16a#X/	.	.
16A#X/	8cc#\J 8g\	.
16a#/JJ	.	.
*clefF4	*	*
=23	=23	=23
16BB\LL	8b\L 8g#X\	.
16B\	.	.
16G#\	8ee\J 8g#\	.
16e\JJ	.	.
*clefG2	*	*
16B/LL	8gg#\L 8ee\	.
16g#/	.	.
16e/	8bb\J 8gg#\	.
16b/JJ	.	.
16B/LL	8ccc#\L 8aa#X\	.
16cc#/	.	.
16ccn/	8ddd#X\J 8aan\	.
16B/JJ	.	.
=24	=24	=24
!	!LO:TX:b:t=poco rit	!
16b/LL 16e/	4eee\ 4gg#\	.
16e/	.	.
16d#X/	.	.
16e/JJ	.	.
16fnM</LL	4r	.
16e/	.	.
16.b/	.	.
32a#X/JJk	.	.
16an/LL	4r	.
16g#/	.	.
16f#X/	.	.
16fn/JJ	.	.
=25	=25	=25
*clefF4	*	*
!	!LO:TX:b:t=a tempo	!
4AA/	16cc#\LL	.
.	16aa\	.
.	16ee\	.
.	16eee\JJ	.
4a\ 4c#\	16ccc#\LL	.
.	16aa\	.
.	16ff#\	.
.	16ee\JJ	p
4c#\ 4E\	16ff#M\LL	.
.	16ee\	.
.	16cc#\	.
.	16a\JJ	.
=26	=26	=26
4EE/	16dd\LL	.
.	16gg#\	.
.	16ee\	.
.	16eee\JJ	.
4g#\ 4d\	16ddd\LL	.
.	16gg#\	.
.	16ff#\	.
.	16ee\JJ	.
4d\ 4E\	16ff#M\LL	.
.	16ee\	.
.	16dd\	.
.	16g#\JJ	.
=27	=27	=27
4EE/	16dd\LL	.
.	16gg#\	.
.	16ee\	.
.	16eee\JJ	.
*clefG2	*	*
4b/ 4d/	16aaa\LL	.
.	16ddd\	.
.	16ggg#\	.
.	16gg#\JJ	.
!!LO:LB:g=original
*clefG2	*	*
4g#/ 4d/ 4E/	16ggg#\LL	.
.	16ddd\	.
.	16gggn\	.
.	16ggn\JJ	.
*clefF4	*	*
=28	=28	=28
4AA\	16gggn\LL	.
.	16ccc#\	.
.	16fff#\	.
.	16aa\JJ	.
4a\ 4c#\	16fff#\LL	.
.	16ccc#\	.
.	16fffn\	.
.	16aa\JJ	.
4c#\ 4E\	16fff\LL	.
.	16ccc#\	.
.	16eee\	.
.	16ee\JJ	.
=29	=29	=29
4AAA/	16cc#\LL	.
.	16aa\	.
.	16ee\	.
.	16eee\JJ	.
4a\ 4c#\	16ccc#\LL	.
.	16aa\	.
.	16ff#\	.
.	16ee\JJ	.
4c#\ 4E\	16ff#M\LL	.
.	16ee\	.
.	16cc#\	.
.	16a\JJ	.
=30	=30	=30
4CCn/	16a#X\LL	.
.	16ggn\	.
.	16ee\	.
.	16eee\JJ	.
*clefG2	*	*
4a#X/ 4e/	16cccn\LL	.
.	16gg\	.
.	16ff#\	.
.	16ee\JJ	.
4e/ 4Gn/	16ff#m\LL	.
.	16ee\	.
.	16ccn\	.
.	16a#\JJ	.
*clefF4	*	*
=31	=31	=31
4BB\	16b\LL	.
.	16gg#\	.
.	16ee\	.
.	16bb\JJ	.
*clefG2	*	*
4b/: 4e/: 4G#:/	16gg#\LL	.
.	16bb\	.
.	16bbb\	.
.	16bb\JJ	.
4dd#X/ 4a/ 4B/	16aaa#X\LL 16ccc#\	.
.	16bb\	.
.	16aaan\ 16ddd#X\	.
.	16bb\JJ	.
*clefF4	*	*
=32	=32	=32
4E\	16gg#\LL 16ee\	.
.	16ff##X\ 16dd#X\	.
.	16gg#\ 16ee\	.
.	16eee\JJ	.
*clefG2	*	*
4ff#\ 4dd\ [<4e\	16ff#X\LL 16ddn\	.
.	16ee#X\ 16cc#\	.
.	16ff#\ 16dd\	.
.	16eee\JJ	.
4ffn\ 4dd\ 4e\]	16ffn\LL 16dd\	.
!	!LO:SIC:v:s=een	!
.	16ee#\ 16cc#\	.
.	16ff\ 16dd\	.
.	16eee\JJ	.
*clefF4	*	*
!!LO:LB:g=original
=33	=33	=33
*	*8va	*
4EE\	16eee\LL 16gg#\	.
.	16fffn\ 16ddd\	.
.	16eee\ 16gg#\	.
.	16bbb\JJ 16ddd\	.
*clefG2	*	*
4b/ 4d/	16eee\LL 16gg#\	.
.	16fff\ 16ddd\	.
.	16eee\ 16gg#\	.
.	16ddd\JJ 16ffn\	.
*clefF4	*	*
*	*X8va	*
4g#\ 4d\ 4E\	16gg#\LL 16ee\	.
.	16ddd\ 16ff\	.
.	16gg#\ 16ee\	.
.	16eee\JJ	.
=34	=34	=34
4AA\	16eee\LL 16aa\	.
.	16fff#\ 16ccc#\	.
.	16eee\ 16aa\	.
.	16aaa\JJ 16ccc#\	.
4a\ 4c#\	16eee\LL 16aa\	.
.	16fff#\ 16ccc#\	.
.	16eee\ 16aa\	.
.	16ccc#\JJ 16ff#\	.
4c#\ 4E\	16aa\LL 16ee\	.
.	16ccc#\ 16ff#\	.
.	16aa\ 16ee\	.
.	16eee\JJ	.
=35	=35	=35
4DD\	16fff#\LL 16ddd\ 16aa\	.
.	16dd\	.
.	16fffn\ 16ddd\ 16gg#\	.
.	16dd\JJ	.
4a\ 4d\ 4A\	16fff#X\LL 16ddd\ 16aa\	.
.	16dd\	.
.	16aaa\ 16fff#\ 16ddd\	.
.	16ff#\JJ	.
4d\ 4A\ 4D\	16aaa\LL 16fff#\ 16ddd\	.
.	16ff#\	.
.	16fffn\ 16ddd\ 16aa\	.
.	16dd\JJ	.
=36	=36	=36
4AA\	16eee\LL 16ccc#\ 16aa\	.
.	16cc#\	.
.	16ddd#X\ 16cccn\ 16aa\	.
.	16ccn\JJ	.
4a\ 4c#\	16eee\LL 16ccc#X\ 16aa\	.
.	16cc#X\	.
!	!LO:SIC:v:s=dddn	!
.	16fffn\ 16ddd#\ 16aa\	.
.	16dd\JJ	.
!	!LO:SIC:v:s=dddn	!
4c#\ 4E\	16fff\LL 16ddd#\ 16aa\	.
.	16dd\	.
.	16eee\ 16ccc#\ 16aa\	.
.	16cc#\JJ	.
!!LO:PB:g=original
=37	=37	=37
4EE/	16eee\LL 16gg#\	.
.	16fffn\ 16ddd\	.
.	16eee\ 16gg#\	.
.	16bbb\JJ 16ddd\	.
*clefG2	*	*
4b/ 4d/	16eee\LL 16gg#\	.
.	16fff\ 16ddd\	.
.	16eee\ 16gg#\	.
.	16ddd\JJ 16ffn\	.
*clefF4	*	*
4g#\ 4d\ 4E\	16gg#\LL 16ee\	.
.	16ddd\ 16ff\	.
.	16gg#\ 16ee\	.
.	16eee\JJ	.
=38	=38	=38
4AA\	16eee\LL 16aa\	.
.	16fff#\ 16ccc#\	.
.	16eee\ 16aa\	.
.	16aaa\JJ 16ccc#\	.
4a\ 4c#\	16eee\LL 16aa\	.
.	16fff#\ 16ccc#\	.
.	16eee\ 16aa\	.
.	16ccc#\JJ 16ee\	.
4a\ 4d#X\ 4cn\ 4F#\	16aa\LL 16dd#X\	.
.	16cccn\ 16ffn\	.
.	16aa\ 16dd#\	.
.	16ddd#X\JJ	.
=39	=39	=39
4EE/	16ee\LL	.
.	16ccc#\ 16aa\	.
.	16ddd#X\	.
.	16eee\JJ	.
*	*8va	*
4a\ 4c#\	16fff#M\LL	.
.	16eee\ 16ccc#\	.
.	16aaa\	.
.	16eeee\JJ	.
4g#\ 4d\ 4E\	16fffnM\LL	.
.	16eee\ 16dddn\	.
.	16ggg#\	.
.	16eeee\JJ	.
=40	=40	=40
4AA\	16aaa\LL	.
.	16ccc#\ 16aa\	.
.	16eee\	.
.	16aaa\JJ	.
*clefG2	*	*
8ee/ 8a/ 8c#/	8aaaa\ 8eeee\	.
*	*X8va	*
8r	8r	.
4r	8.cc#\L	.
.	16dd\Jk	.
!!LO:LB:g=original
=41||	=41||	=41||
*clefF4	*	*
4FF#/	16aa\LL 16cc#\	p
.	16aa\ 16cc#\	.
.	16aa\ 16cc#\	.
!	!LO:TX:t=P:problem:niezrozumiały tekst	!
!	!LO:TX:b:t=dist intamenta	!
.	16aa\JJ 16cc#\	.
4f#\ 4c#\ 4A\	16bb\LL 16cc#\	.
.	16bb\ 16cc#\	.
.	16aa\ 16cc#\	.
.	16aa\JJ 16cc#\	.
4c#\ 4A\ 4F#\	16gg#\LL 16cc#\	.
.	16gg#\ 16cc#\	.
.	16ff#\ 16cc#\	.
.	16ff#\JJ 16cc#\	.
=42	=42	=42
4CC#/	16ee#X\LL 16cc#\	.
.	16ccc#\ 16cc#\	.
.	16ccc#\ 16cc#\	.
.	16ccc#\JJ 16cc#\	.
4g#\ 4c#\ 4B\	16ccc#\LL 16bb#X\ 16cc#\	.
.	16ccc#\ 16bb#\ 16cc#\	.
.	16ccc#\ 16bbn\ 16cc#\	.
.	16ccc#\JJ 16bb\ 16cc#\	.
4c#\ 4B\ 4E#X\	16ccc#\LL 16aa\ 16cc#\	.
.	16ccc#\ 16aa\ 16cc#\	.
.	16ccc#\ 16gg#\ 16cc#\	.
.	16ccc#\JJ 16gg#\ 16cc#\	.
=43	=43	=43
4FF#\	16aa\LL 16cc#\	.
.	16aa\ 16cc#\	.
.	16aa\ 16cc#\	.
.	16aa\JJ 16cc#\	.
4f#\ 4c#\ 4A\	16bb\LL 16cc#\	.
.	16bb\ 16cc#\	.
.	16aa\ 16cc#\	.
.	16aa\JJ 16cc#\	<
4B#X\ 4F#\ 4GG#\	16ggg#\LL 16bb#X\ 16gg#\	.
.	16ggg#\ 16bb#\ 16gg#\	.
.	16ggg#\ 16bb#\ 16ff#\	.
.	16ggg#\JJ 16bb#\	[[
=44	=44	=44
4CC#/	16ccc#\LL 16ee#X\	.
.	16ggg#\ 16ccc#\	.
.	16ggg#\ 16ccc#\	.
.	16gg#\JJ 16ee#\	.
4g#\ 4c#\ 4G#\	16gg#\LL 16ee#\	.
.	16ccc#\ 16gg#\	.
.	16ccc#\ 16gg#\	.
.	16ee#\JJ 16cc#\	.
4c#\ 4G#\ 4E#X\	16ee#\LL 16cc#\	.
.	16gg#\ 16ee#\	.
.	16gg#\ 16ee#\	.
.	16cc#\JJ 16g#\	.
!!LO:LB:g=original
=45	=45	=45
4BB\	16ddd\LL 16dd\	>
.	16ddd\ 16dd\	.
.	16ddd\ 16dd\	.
.	16ddd\JJ 16dd\	.
4f#\ 4d\ 4B\	16ddd\LL 16ccc#\ 16dd\	.
.	16ddd\ 16ccc#\ 16dd\	.
.	16ddd\ 16bb\ 16dd\	.
.	16ddd\JJ 16bb\ 16dd\	.
4g#\ 4d\ 4E\	16ddd\LL 16aa\ 16dd\	]
.	16ddd\ 16aa\ 16dd\	.
.	16ddd\ 16gg#\ 16dd\	.
.	16ddd\JJ 16gg#\ 16dd\	.
=46	=46	=46
4AA\	16ccc#\LL 16cc#\	>
.	16ccc#\ 16cc#\	.
.	16ccc#\ 16cc#\	.
.	16ccc#\JJ 16cc#\	.
4e\ 4c#\ 4A\	16ccc#\LL 16bb\ 16cc#\	.
.	16ccc#\ 16bb\ 16cc#\	.
.	16ccc#\ 16aa\ 16cc#\	.
.	16ccc#\JJ 16aa\ 16cc#\	.
4f#\ 4B#X\ 4D\	16bb#X\LL 16gg#\ 16b#X\	.
.	16bb#\ 16gg#\ 16b#\	.
.	16bb#\ 16ff#\ 16b#\	.
.	16bb#\JJ 16ff#\ 16b#\	]]
=47	=47	=47
4CC#/	16ccc#\LL 16cc#\	p
.	16ccc#\ 16cc#\	.
.	16ccc#\ 16b#X\	.
.	16ccc#\JJ 16cc#\	.
4a\ 4f#\ 4c#\	16ccc#\LL 16aa\ 16cc#\	.
.	16ccc#\ 16aa\ 16cc#\	.
.	16ccc#\ 16aa\ 16cc#\	.
.	16ccc#\JJ 16aa\ 16cc#\	.
4e#X\ 4B\ 4C#\	16ccc#\LL 16gg#\ 16cc#\	.
.	16ccc#\ 16gg#\ 16cc#\	.
.	16ccc#\ 16gg#\ 16cc#\	.
.	16ccc#\JJ 16gg#\ 16cc#\	.
=48	=48	=48
4FF#\	16ccc#\LL 16cc#\	.
.	16ccc#\ 16dd\	.
.	16ccc#\ 16b#X\	.
.	16ccc#\JJ 16cc#\	.
4f#\ 4c#\ 4A\	16ccc#\LL 16ff#\ 16cc#\	.
.	16ccc#\ 16ff#\ 16cc#\	.
.	16ccc#\ 16ff#\ 16cc#\	.
.	16ccc#\JJ 16ff#\ 16cc#\	.
4c#\ 4A\ 4F#\	16ccc#\LL 16ff#\ 16cc#\	.
.	16ccc#\ 16ff#\ 16cc#\	.
.	16ccc#\ 16ff#\ 16cc#\	.
.	16ccc#\JJ 16ff#\ 16cc#\	.
!!LO:LB:g=original
=49	=49	=49
4BB\	16ddd\LL 16dd\	>
.	16ddd\ 16dd\	.
.	16ddd\ 16dd\	.
.	16ddd\JJ 16dd\	.
4b\ 4f#\ 4d\	16ddd\LL 16ccc#\ 16dd\	.
.	16ddd\ 16ccc#\ 16dd\	.
.	16ddd\ 16bb\ 16dd\	.
.	16ddd\JJ 16bb\ 16dd\	.
4g#\ 4d\ 4E\	16ddd\LL 16aa\ 16dd\	.
.	16ddd\ 16aa\ 16dd\	.
.	16ddd\ 16gg#\ 16dd\	.
.	16ddd\JJ 16gg#\ 16dd\	]]
=50	=50	=50
4AA\	16ccc#\LL 16cc#\	>
.	16ccc#\ 16cc#\	.
.	16ccc#\ 16cc#\	.
.	16ccc#\JJ 16cc#\	.
4a\ 4e\ 4c#\	16ccc#\LL 16bb\ 16cc#\	.
.	16ccc#\ 16bb\ 16cc#\	.
.	16ccc#\ 16aa\ 16cc#\	.
.	16ccc#\JJ 16aa\ 16cc#\	.
4f#\ 4B#X\ 4D\	16bb#X\LL 16gg#\ 16b#X\	.
.	16bb#\ 16gg#\ 16b#\	.
.	16bb#\ 16ff#\ 16b#\	.
.	16bb#\JJ 16ff#\ 16b#\	]]
=51	=51	=51
4C#\ 4CC#\	16ccc#\LL 16cc#\	.
.	16ccc#\ 16dd\	.
.	16ccc#\ 16b#X\	.
.	16ccc#\JJ 16cc#\	.
4a\ 4f#\ 4c#\	16ccc#\LL 16aa\ 16cc#\	.
.	16ccc#\ 16aa\ 16cc#\	.
.	16ccc#\ 16aa\ 16cc#\	.
.	16ccc#\JJ 16aa\ 16cc#\	.
4e#X\ 4B\ 4C#\	16ccc#\LL 16gg#\ 16cc#\	.
.	16ccc#\ 16gg#\ 16cc#\	.
.	16ccc#\ 16gg#\ 16cc#\	.
.	16ccc#\JJ 16gg#\ 16cc#\	.
=52	=52	=52
16f#/LL 16A/ 16F#/	2.ff#TT\	<[
16f#/ 16A/	.	.
16gn/ 16A#X/	.	.
16g/JJ 16A#/	.	.
16g/LL 16B/	.	.
16g/ 16B/	.	.
16g#X/ 16B#X/	.	.
16g#/JJ 16B#/	.	.
16g#/LL 16B#/	.	.
16g#/ 16B#/	.	.
16a/ 16c#/	.	.
16a/JJ 16c#/	.	.
=53	=53	=53
8qEEE/	.	.
16a/LL 16c#/	2.cc#tt\	>]
16a/ 16c#/	.	.
16g#/ 16B/	.	.
16g#/JJ 16B/	.	.
16g#/LL 16B/	.	.
16g#/ 16B/	.	.
16b/ 16d/	.	.
16b/JJ 16d/	.	.
16a/LL 16c#/	.	.
16a/ 16c#/	.	.
16g#/ 16B/	.	.
16g#/JJ 16B/	.	.
!!LO:LB:g=original
=54	=54	=54
*clefG2	*	*
!	!LO:N:vis=2	!
16f#/LL 16A/ 16F#/	2.ff#TT\	<[
16f#/ 16A/	.	.
16gn/ 16A#X/	.	.
16g/JJ 16A#/	.	.
16g/LL 16B/	.	.
16g/ 16B/	.	.
16g#X/ 16B#X/	.	.
16g#/JJ 16B#/	.	.
16g#/LL 16B#/	.	.
16g#/ 16B#/	.	.
16a/ 16c#/	.	.
16a/JJ 16c#/	.	.
=55	=55	=55
8qC#/	.	.
16a/LL 16c#/	2.cc#tt\	>]
16a/ 16c#/	.	.
16g#/ 16B/	.	.
16g#/JJ 16B/	.	.
16g#/LL 16B/	.	.
16g#/ 16B/	.	.
16b/ 16d/	.	.
16b/JJ 16d/	.	.
16a/LL 16c#/	.	.
16a/ 16c#/	.	.
16g#/ 16B/	.	.
16g#/JJ 16B/	.	.
=56	=56	=56
!	!LO:N:vis=2	!
4f#/ 4c#/ 4A/	2.ff#T\	pp
*clefF4	*	*
4FF#/	.	.
4r	.	.
.	16qee#X\	.
=57	=57	=57
2r	16ff#\LL	.
.	16ccc#\	.
.	16aa\	.
.	16fff#\JJ	.
*	*8va	*
.	16ccc#\LL	.
.	16ffff#\	.
.	16cccc#\	.
.	16aaa\JJ	.
4r	16fff#\LL	.
.	16ccc#\	.
.	16aa\	.
.	16ff#\JJ	.
*clefF4	*X8va	*
=58	=58	=58
!	!LO:N:vis=2	!
4f#\ 4A\ 4F#\	2.ff#TT\	.
4FF#\	.	.
4r	.	.
.	8qee#X\	.
=59	=59	=59
2r	16ff#\LL	.
.	16ccc#\	.
.	16aa\	.
.	16fff#\JJ	.
*	*8va	*
.	16ccc#\LL	.
.	16ffff#\	.
.	16cccc#\	.
.	16aaa\JJ	.
4r	16fff#\LL	.
.	16ccc#\	.
.	16aa\	.
.	16ff#\JJ	.
*	*X8va	*
!!LO:LB:g=original
=60	=60	=60
4.f#\ 4.A\ 4.F#\	4.ff#TT\	ppp
*clefG2	*	*
.	16qqee#X\LL	.
.	16qqff#\JJ	.
8dd\L	16ddd\LL	.
.	16ff#\JJ	.
8dd\	16ddd\LL	.
!	!LO:TX:b:t=poco rit.:dur=4qe:ext=ut:ext2=u:problem:text with extention linet.	!
.	16ff#\	.
8cc#\J	16ccc#\	.
.	16cc#\JJ	.
=61	=61	=61
8f#\L 8d\	16ccc#\LL	.
.	16ff#\	.
8b\J	16bb\	.
.	16dd\JJ	.
8b\L	16bb\LL	.
.	16ffn\	.
8a\J	16aa\	.
.	16dd\JJ	.
8a\L	16aa\LL	.
.	16dd\	.
8fn\J	16ff\	.
.	16a\JJ	.
*clefF4	*	*
=62	=62	=62
8B\L 8G#\	16ffn\LL	.
.	16dd\	.
8e\J	16ee\	.
.	16g#\JJ	.
8d#X\L	16dd#X\LL	.
.	16ddn\	.
8e\J	16ee\	.
.	16g#\JJ	.
32qqe/LLL	32qqdd/LLL	.
32qqg#/JJJ	32qqgg#/JJJ	.
8f#\L	16ff#X\LL	.
.	16g#\	.
8e\J	16ee\	.
.	16g#\JJ	.
=63||	=63||	=63||
!	!	!LO:DY:t=pp.
4AA\	16cc#\LL	pp
.	16aa\	.
.	16ee\	.
.	16eee\JJ	.
4a\ 4c#\	16ccc#\LL	.
.	16aa\	.
.	16ff#\	.
.	16ee\JJ	.
4c#\ 4E\	16ff#M\LL	.
.	16ee\	.
.	16cc#\	.
.	16a\JJ	.
=64	=64	=64
4EE\	16dd\LL	.
.	16gg#\	.
.	16ee\	.
.	16eee\JJ	.
4g#\ 4d\	16ddd\LL	.
.	16gg#\	.
.	16ff#\	.
.	16ee\JJ	.
4d\ 4E\	16ff#M\LL	.
.	16ee\	.
.	16dd\	.
.	16g#\JJ	.
!!LO:PB:g=original
=65	=65	=65
4EE/	16dd\LL	<
.	16gg#\	.
.	16ee\	.
.	16eee\JJ	.
*clefG2	*	*
4b/ 4d/	16aaa\LL	.
.	16ddd\	[
.	16eee\	>
.	16gg#\JJ	.
*clefF4	*	*
4g#\ 4d\ 4E\	16ggg#\LL	.
.	16ddd\	.
.	16gggn\	.
.	16ggn\JJ	]
=66	=66	=66
4AA\	16gggn\LL	.
.	16ccc#\	.
.	16fff#\	.
.	16aa\JJ	.
4a\ 4c#\	16fff#\LL	.
.	16ccc#\	.
.	16fffn\	.
.	16aa\JJ	.
4c#\ 4E\	16fff\LL	.
.	16aa\	.
.	16eee\	.
.	16ee\JJ	.
=67	=67	=67
4AAA/	16cc#\LL	.
.	16aa\	.
.	16ee\	.
.	16eee\JJ	.
4a\ 4c#\	16ccc#\LL	.
.	16aa\	.
.	16ff#\	.
.	16ee\JJ	.
4c#\ 4E\	16ff#M\LL	.
.	16ee\	.
.	16cc#\	.
.	16a\JJ	.
=68	=68	=68
4CCn/	16a#X\LL	.
.	16ggn\	.
.	16ee\	.
.	16eee\JJ	.
*clefG2	*	*
4a#X/ 4e/	16cccn\LL	.
.	16gg\	.
.	16ff#\	.
.	16ee\JJ	.
4e/ 4Gn/	16ff#m\LL	.
.	16ee\	.
.	16ccn\	.
.	16a#\JJ	.
*clefF4	*	*
=69	=69	=69
4BB\	16b\LL	.
.	16gg#\	.
.	16ee\	.
.	16bb\JJ	.
*clefG2	*	*
4b/ 4e/ 4G#/	16gg#\LL	.
.	16bb\	.
.	16bbb\	.
.	16bb\JJ	.
4dd#X/ 4a/ 4B/	16aaa#X\LL 16ccc#\	.
.	16bb\	.
.	16aaan\ 16ddd#X\	.
.	16bb\JJ	.
!!LO:LB:g=original
=70	=70	=70
*clefG2	*8va	*
4E/	16ggg#\LL 16eee\	.
.	16fff##X\ 16ddd#X\	.
.	16ggg#\ 16eee\	.
.	16eeee\JJ	.
4ff#\ 4dd\ [<4e\	16fff#X\LL 16dddn\	.
.	16eee#X\ 16ccc#\	.
.	16fff#\ 16ddd\	.
.	16eeee\JJ	.
4ffn\ 4dd\ 4e\]	16fffn\LL 16ddd\	.
.	16eeen\ 16ccc#\	.
.	16fff\ 16ddd\	.
.	16eeee\JJ	.
*clefF4	*	*
=71	=71	=71
4EE/	16eee\LL 16gg#\	.
.	16fffn\ 16ddd\	.
.	16eee\ 16gg#\	.
.	16bbb\JJ 16ddd\	.
*clefG2	*	*
4b/ 4d/	16eee\LL 16gg#\	.
.	16fff\ 16ddd\	.
.	16eee\ 16gg#\	.
.	16ddd\JJ 16ffn\	.
*clefF4	*	*
*	*X8va	*
4g#\ 4d\ 4E\	16gg#\LL 16ee\	.
.	16ddd\ 16ffn\	.
.	16gg#\ 16ee\	.
.	16eee\JJ	.
=72	=72	=72
4AA/	16eee\LL 16aa\	.
.	16fff#\ 16ccc#\	.
.	16eee\ 16aa\	.
.	16aaa\JJ 16ccc#\	.
4a\ 4c#\	16eee\LL 16aa\	.
.	16fff#\ 16ccc#\	.
.	16eee\ 16aa\	.
.	16ccc#\JJ 16ff#\	.
4c#\ 4E\	16aa\LL 16ee\	.
.	16ccc#\ 16ff#\	.
.	16aa\ 16ee\	.
.	16eee\JJ	.
=73	=73	=73
4DD/	16fff#\LL 16ddd\ 16aa\	.
.	16dd\	.
.	16fffn\ 16ddd\ 16gg#\	.
.	16dd\JJ	.
4a\ 4d\ 4A\	16fff#X\LL 16ddd\ 16aa\	.
.	16dd\	.
.	16aaa\ 16fff#\ 16ddd\	.
.	16ff#\JJ	.
4d\ 4A\ 4D\	16aaa\LL 16fff#\ 16ddd\	.
.	16ff#\	.
.	16fffn\ 16ddd\ 16aa\	.
.	16dd\JJ	.
!!LO:LB:g=original
=74	=74	=74
4AAA/	16eee\LL 16ccc#\ 16aa\	.
.	16cc#\	.
.	16ddd#X\ 16cccn\ 16aa\	.
.	16ccn\JJ	.
4a\ 4c#\	16eee\LL 16ccc#X\ 16aa\	.
.	16cc#X\	.
!	!LO:SIC:v:s=dddn	!
.	16fffn\ 16ddd#\ 16aa\	.
.	16dd\JJ	.
!	!LO:SIC:v:s=dddn	!
4c#\ 4E\	16fff\LL 16ddd#\ 16aa\	.
.	16dd\	.
.	16eee\ 16ccc#\ 16aa\	.
.	16cc#\JJ	.
=75	=75	=75
*	*8va	*
4EE/	16eee\LL 16gg#\	.
.	16fffn\ 16ddd\	.
.	16eee\ 16gg#\	.
.	16bbb\JJ 16ddd\	.
*clefG2	*	*
4b/ 4d/	16eee\LL 16gg#\	.
.	16fff\ 16ddd\	.
.	16eee\ 16gg#\	.
.	16ddd\JJ 16ffn\	.
*clefF4	*	*
*	*X8va	*
4g#\ 4d\ 4E\	16gg#\LL 16ee\	.
.	16ddd\ 16ffn\	.
.	16gg#\ 16ee\	.
.	16eee\JJ	.
=76	=76	=76
4AA\	16eee\LL 16aa\	.
.	16fff#\ 16ccc#\	.
.	16eee\ 16aa\	.
.	16aaa\JJ 16ccc#\	.
4a\ 4e\ 4c#\	16eee\LL 16aa\	.
.	16fff#\ 16ccc#\	.
.	16eee\ 16aa\	.
.	16ccc#\JJ 16ee\	.
4g#\ 4c#\ 4B\ 4E#X\	16ccc#\LL 16ee#X\	.
.	16ddd\ 16bb\	.
.	16ccc#\ 16ee#\	.
.	16ggg#\JJ	.
=77	=77	=77
4FF#\	16ccc#\LL 16ff#\	.
.	16ddd\ 16aa\	.
.	16ccc#\ 16ff#\	.
.	16fff#\JJ 16aa\	.
4f#\ 4c#\ 4A\	16ccc#\LL 16ff#\	.
.	16ddd\ 16aa\	.
.	16ccc#\ 16ff#\	.
.	16aa\JJ 16cc#\	.
4c#\ 4Gn\ 4AA\	16aa\LL 16cc#\	.
.	16bb-X\ 16ggn\	.
.	16aa\ 16cc#\	.
.	16eee\JJ 16gg\	.
!!LO:LB:g=original
=78	=78	=78
4D/ 4DD/	16aa\LL 16dd\	.
.	16bb\ 16ff#\	.
.	16aa\ 16dd\	.
.	16ddd\JJ 16ff#\	.
4g#\ 4e#X\ 4D\	16gg#\LL 16cc#\	.
.	16aa\ 16ee#X\	.
.	16gg#\ 16cc#\	.
.	16ccc#\JJ 16ee#\	.
4gn\ 4en\	16ggn\LL 16ccn\	.
.	16aa\ 16een\	.
.	16gg\ 16cc\	.
!	!LO:SIC:v:s=cccn	!
.	16ccc#\JJ 16ee\	.
=79	=79	=79
4f#\ 4d#X\	16ff#\LL 16b\	.
.	16ggn\ 16dd#X\	.
.	16ff#\ 16b\	.
.	16bb\JJ 16dd#\	.
!LO:SIC:v:s=ddn	!	!
4fn\ 4d#\ 4D\	16ffn\LL 16b-X\	.
.	16gg\ 16ddn\	.
.	16ff\ 16b-\	.
.	16bb-X\JJ 16dd\	.
!LO:SIC:v:s=ddn	!	!
4e\ 4d#\ 4G#\ 4E\	16ee\LL 16gn\	.
.	16ff\ 16dd\	.
.	16ee\ 16g\	.
.	16bb-\JJ 16dd\	.
=80	=80	=80
4AA\	16ee\LL 16a\	pp
.	16ffn\ 16a\	.
.	16ee\ 16a\	.
.	16aa\JJ 16cc#\	.
4c#\ 4A\	16ee\LL 16a\	.
.	16ff\ 16cc#\	.
.	16ee\ 16a\	.
.	16cc#\JJ 16fn\	.
4E\	16a\LL 16e\	.
.	16cc#\ 16f\	.
.	16a\ 16e\	.
.	16ee\JJ	.
=81	=81	=81
4EE\	16ee\LL 16dd\	.
.	16g#\	.
.	16dd#X\ 16dd\	.
.	16g#\JJ	.
4d\ 4G#\	16ee\LL 16ddn\	.
.	16g#\	.
.	16ffn\ 16dd\	.
.	16g#\JJ	.
4E\	16ff\LL 16dd\	.
.	16g#\	.
.	16ee\ 16dd\	.
.	16g#\JJ	.
=82	=82	=82
4AA\	16eee\LL 16aa\	.
.	16fffn\ 16ccc#\	.
.	16eee\ 16aa\	.
.	16aaa\JJ 16ccc#\	.
*clefG2	*	*
4cc#/ 4a/ 4e/	16eee\LL 16aa\	.
.	16fff\ 16ccc#\	.
.	16eee\ 16aa\	.
.	16ccc#\JJ 16ffn\	.
!!LO:LB:g=original
4a/ 4e/ 4c#/	16aa\LL 16ee\	.
.	16ccc#\ 16ffn\	.
.	16aa\ 16ee\	.
.	16eee\JJ	.
=83	=83	=83
4E/	16eee\LL 16ddd\ 16gg#\	.
.	16ee\	.
.	16ddd#X\ 16ddd\ 16gg#\	.
.	16ee\JJ	.
4dd/ 4g#/ 4e/	16eee\LL 16dddn\ 16gg#\	.
.	16ee\	.
.	16fffn\ 16ddd\ 16gg#\	.
.	16ee\JJ	.
4g#/ 4e/ 4d/	16fff\LL 16ddd\ 16gg#\	.
.	16ee\	.
.	16eee\ 16ddd\ 16gg#\	.
.	16ee\JJ	.
=84	=84	=84
4cc#/ 4e/ 4A/	16eee\LL 16aa\	pp
.	16fff#X\ 16ccc#\	.
.	16eee\ 16aa\	.
!	!LO:TX:b:t=più possibile	!
.	16aaa\JJ 16ccc#\	.
16ee/LL	16eee\LL 16aa\	.
16aa/	16fff#\ 16ccc#\	.
16ee/	16eee\ 16aa\	.
16cc#/JJ	16ccc#\JJ 16ff#\	.
16a/LL	16aa\LL 16ee\	.
16cc#/	16ccc#\ 16ff#\	.
16a\	16aa\ 16ee\	.
16cc#/JJ	16eee\JJ 16ff#\	.
=85	=85	=85
16a/LL	16aa\LL 16ee\	.
16cc#/	16ccc#\ 16ff#\	.
16a/	16aa\ 16ee\	.
16cc#/JJ	16eee\JJ 16ff#\	.
16a/LL	16aa\LL 16ee\	.
16cc#/	16ccc#\ 16ff#\	.
16a/	16aa\ 16ee\	.
16e/JJ	16ff#\JJ 16cc#\	.
16c#/LL	16ee\LL 16a\	.
16e/	16ff#\ 16cc#\	.
16c#/	16ee\ 16a\	.
16e/JJ	16aa\JJ 16cc#\	.
=86	=86	=86
16c#/LL	16ee\LL 16a\	.
16e/	16ff#\ 16cc#\	.
16c#/	16ee\ 16a\	.
16e/JJ	16aa\JJ 16cc#\	.
16c#/LL	16ee\LL 16a\	.
16e/	16ff#\ 16cc#\	.
16c#/	16ee\ 16a\	.
16A/JJ	16cc#\JJ 16f#\	.
*clefF4	*	*
16A\LL	16a\LL 16e\	.
16c#\	16cc#\ 16f#\	.
16A\	16a\ 16e\	.
16c#\JJ	16ee\JJ 16f#\	.
=87	=87	=87
16A\LL	16a\LL 16e\	.
16c#\	16cc#\ 16f#\	.
16A\	16a\ 16e\	.
16c#\JJ	16ee\JJ 16f#\	.
16A\LL	16a\LL 16e\	.
16c#\	16cc#\ 16f#\	.
16A\	16a\ 16e\	.
16E\JJ	16f#\JJ 16c#\	.
16C#\LL	16e\LL 16A\	.
16E\	16f#\ 16c#\	.
16C#\	16e\ 16A\	.
16E\JJ	16a\JJ 16c#\	.
!!LO:LB:g=original
=88	=88	=88
*	*Xtuplet	*
16AA\LL	28r	.
.	28A\LL	.
16E\	.	.
.	28B#X\	.
.	28c#\	.
16A\	.	.
.	28f#\	.
.	28e\JJ	.
16c#\JJ	.	.
.	28a\LL	.
*clefG2	*	*
16e/LL	28b#X\	.
.	28cc#\	.
16a/	.	.
.	28ff#\	.
.	28ee\JJ	.
16cc#/	.	.
.	28aa\LL	.
.	28bb#X\	.
16ee/JJ	.	.
.	28ccc#\	.
16aa\LL	28fff#\	.
.	28eee\JJ	.
16ccc#\	.	.
*	*8va	*
.	28aaa\LL	.
.	28bbb#X\	.
16eee\	.	.
.	28cccc#\	.
.	28ffff#\	.
16aaa\JJ	.	.
.	28eeee\JJ	.
=89	=89	=89
*Xtuplet	*	*
20ccccn\LL	28aaaa\LL	.
.	28dddd#X\	.
20aaa\	.	.
.	28gggg#\	.
20fff#\	.	.
.	28ffff#\	.
.	28dddd#\	.
20ddd#X\JJ	.	.
.	28ccccn\JJ	.
20cccn\LL	.	.
.	28aaa\LL	.
20aa\	28ddd#X\	.
.	28ggg#\	.
20ff#\	.	.
.	28fff#\	.
20dd#X\JJ	.	.
.	28ddd#\	.
.	28cccn\JJ	.
20ccn\LL	.	.
*	*X8va	*
!	!LO:TX:a:t=loco	!
.	28aa\LL	.
20a\	.	.
.	28ff#\	.
20f#\	24dd#X\	.
.	24ccn\JJ	.
20d#X\	.	.
.	24a\LL	.
20cn\	.	.
.	24f#\	.
20A\	.	.
.	24d#X\	.
20F#\JJ	.	.
.	24cn\JJ	.
*clefF4	*	*
=90	=90	=90
16AA\LL	28r	.
.	28A\LL	.
16E\	.	.
.	28B#X\	.
.	28c#\	.
16A\	.	.
.	28f#\	.
.	28e\JJ	.
16c#\JJ	.	.
.	28a\LL	.
*clefG2	*	*
16e/LL	28b#X\	.
.	28cc#\	.
16a/	.	.
.	28ff#\	.
.	28ee\JJ	.
16cc#/	.	.
.	28aa\LL	.
.	28ccc#X\	.
16ee/JJ	.	.
.	28ddd\	.
16aa\LL	28fff#\	.
.	28eee\JJ	.
16ccc#\	.	.
*	*8va	*
.	28aaa\LL	.
.	28bbb\	.
16eee\	.	.
.	28cccc#\	.
.	28ffff#\	.
16aaa\JJ	.	.
.	28eeee\JJ	.
=91	=91	=91
*8va	*	*
20ccccn\LL	28aaaa\LL	.
.	28dddd#X\	.
20aaa\	.	.
.	28gggg#\	.
20fff#\	.	.
.	28ffff#\	.
.	28dddd#\	.
20ddd#X\JJ	.	.
.	28ccccn\JJ	.
20cccn\LL	.	.
.	28aaa\LL	.
20aa\	28ddd#X\	.
.	28ggg#\	.
20ff#\	.	.
.	28fff#\	.
20dd#X\JJ	.	.
.	28ddd#\	.
.	28cccn\JJ	.
*X8va	*	*
20ccn\LL	.	.
*	*X8va	*
!	!LO:TX:a:t=loco	!
.	28aa\LL	.
20a\	.	.
.	28ff#\	.
20f#\	24dd#X\	.
.	24ccn\JJ	.
20d#X\	.	.
.	24a\LL	.
20cn\	.	.
.	24f#\	.
20A\	.	.
.	24d\	.
20F#\JJ	.	.
.	24cn\JJ	.
*clefF4	*	*
!!LO:LB:g=original
=92	=92	=92
16AA/LL	28r	.
.	28A\LL	.
16E/	.	.
.	28B#X\	.
.	28c#\	.
16A/	.	.
.	28f#\	.
.	28e\JJ	.
16c#/JJ	.	.
.	28a\LL	.
*clefG2	*	*
16e\LL	28b#X\	.
.	28cc#\	.
16a\	.	.
.	28ff#\	.
.	28ee\JJ	.
16cc#\	.	.
.	28aa\LL	.
.	28bb#X\	.
16ee\JJ	.	.
.	28ccc#\	.
16aa\LL	28fff#\	.
.	28eee\JJ	.
16ccc#\	.	.
*	*8va	*
.	28aaa\LL	.
.	28bbb#X\	.
16eee\	.	.
.	28cccc#\	.
.	28ffff#\	.
16aaa\JJ	.	.
.	28eeee\JJ	.
=93	=93	=93
*tremolo	*	*
!LO:TX:a:t=tremolando	!	!
32eee\LLL 32ccc#\	2.eeeeTT\	.
32aaa\	.	.
32eee\ 32ccc#\	.	.
32aaa\	.	.
32eee\ 32ccc#\	.	.
32aaa\	.	.
32eee\ 32ccc#\	.	.
32aaa\JJJ	.	.
32ddd#X\LLL 32cccn\	.	.
32aaa\	.	.
32ddd#X\ 32ccc\	.	.
32aaa\	.	.
32ddd#\ 32ccc\	.	.
32aaa\	.	.
32ddd#X\ 32ccc\	.	.
32aaa\JJJ	.	.
32eee\LLL 32ccc#X\	.	.
32aaa\	.	.
32eee\ 32ccc#\	.	.
32aaa\	.	.
32eee\ 32ccc#\	.	.
32aaa\	.	.
32eee\ 32ccc#\	.	.
32aaa\JJJ	.	.
.	8qqdddd#X\	.
.	8qqeeee\	.
*Xtremolo	*	*
=94	=94	=94
*8va	*	*
4cccc#\ 4eee\ 4aa\	4aaaa\	.
*	*X8va	*
4r	4r	.
4r	4r	.
*X8va	*	*
*clefF4	*	*
=95	=95	=95
!	!LO:TX:b:t=quasi niente.	!
4d\: 4E\: 4EE:\	4eee\: 4gg#\: 4ee\: 4g#:\	.
4r	4r	.
4r	4r	.
=96	=96	=96
4c#\: 4E\: 4AA\: 4CC#:\	4aa\ 4ee\ 4a\	.
4r	4r	.
!	!LO:TX:b:t=Fine.	!
4r	4r	.
==	==	==
*-	*-	*-
!!!system-decoration: [(s1,s2)]
!!!RDF**kern: > = above
!!!RDF**kern: < = below
!!!EED: Leszek Kubiak
!!!EST: 2021-05-27
!!!ENC: Marcin Jachim
!!!END: 2021-05-09
